Costumes/J-glow.svg

<?xml version="1.0" encoding="UTF-8" standalone="no"?>
<svg
   version="1.1"
   width="59.91"
   height="78.646782"
   id="svg8"
   sodipodi:docname="J-glow.svg"
   xmlns:inkscape="http://www.inkscape.org/namespaces/inkscape"
   xmlns:sodipodi="http://sodipodi.sourceforge.net/DTD/sodipodi-0.dtd"
   xmlns="http://www.w3.org/2000/svg"
   xmlns:svg="http://www.w3.org/2000/svg">
  <defs
     id="defs12" />
  <sodipodi:namedview
     id="namedview10"
     pagecolor="#ffffff"
     bordercolor="#000000"
     borderopacity="0.25"
     inkscape:showpageshadow="2"
     inkscape:pageopacity="0.0"
     inkscape:pagecheckerboard="0"
     inkscape:deskcolor="#d1d1d1" />
  <!-- Exported by Scratch - http://scratch.mit.edu/ -->
  <g
     id="ID0.5927098118700087"
     transform="translate(0,-2.1428571e-4)">
    <g
       id="ID0.4447302892804146">
      <g
         id="ID0.7447618972510099">
        <path
           id="ID0.10947818402200937"
           fill="#00cccc"
           d="m 59.88,14.117 c -0.29,3.45 -1.77,6.5 -4.13,8.8 1.16,4.71 1.7,8.39 1.7,11.48 v 8 c 0,5.36 -0.37,9.24 -1.16,12.23 -1.41,5.31 -1.8,6.49 -2.05,7.18 -1.76,4.89 -4.43,8.76 -7.92,11.46 -3.55,2.74 -7.65,4.47 -12.2,5.16 -0.19,0.03 -0.39,0.06 -0.58,0.08 -0.95,0.09 -1.96,0.14 -3.01,0.14 -6.55,0 -12.89,-1.91 -18.82,-5.67 C 1.63,66.547 -0.04,58.427 0.06,53.427 0.02,52.937 0,52.437 0,51.897 c 0,-2.65 0.53,-5.37 1.59,-8.07 1.86,-4.81 4.89,-7.31 7.1,-8.55 4.78,-2.63 8.42,-3.79 11.9,-3.79 3.48,0 6.8,1.24 9.5,3.53 -0.12,-1.38 -0.36,-2.85 -0.73,-4.41 -2.57,-0.09 -5,-0.82 -7.06,-2.12 -2.75,-1.76 -4.67,-3.91 -5.79,-6.45 -1.65,-3.68 -1.28,-6.88 -0.63,-8.99 1.69,-5.6 6.32,-9.65 12.74,-11.1 0.34,-0.08 0.69,-0.14 1.04,-0.19 1.7,-0.22 3.43,-0.44 5.18,-0.66 1.52,-0.28 4.26,-0.63 11.06,-1.07 0.7,-0.05 1.4,-0.03 2.09,0.06 1.95,0.24 4.87,1.09 7.68,3.75 3.69,3.48 4.24,7.36 4.24,9.36 0,0.31 -0.01,0.62 -0.03,0.92 z" />
      </g>
    </g>
    <g
       id="ID0.1137806847691536">
      <path
         id="ID0.6012937603518367"
         fill="#ffffff"
         d="m 48.914,13.198 c -0.118,1.407 -0.998,2.346 -2.639,2.814 -1.291,0.294 -2.582,0.587 -3.871,0.88 0.762,1.701 1.584,4.31 2.463,7.828 1.056,4.164 1.584,7.389 1.584,9.676 V 42.4 c 0,4.281 -0.265,7.419 -0.792,9.412 -0.938,3.519 -1.525,5.601 -1.759,6.245 -1.056,2.933 -2.493,5.103 -4.311,6.51 -2.053,1.583 -4.428,2.579 -7.124,2.99 -0.587,0.058 -1.231,0.088 -1.936,0.088 -4.457,0 -8.768,-1.319 -12.931,-3.958 -4.691,-2.991 -6.86,-6.538 -6.509,-10.644 -0.059,-0.293 -0.088,-0.674 -0.088,-1.144 0,-1.289 0.277,-2.652 0.836,-4.09 0.557,-1.437 1.304,-2.419 2.243,-2.947 2.872,-1.583 5.042,-2.375 6.509,-2.375 0.996,0 1.891,0.396 2.683,1.188 0.792,0.792 1.188,1.687 1.188,2.684 0,0.821 -0.352,1.525 -1.056,2.11 -0.235,0.176 -0.763,0.295 -1.583,0.353 -0.938,0.118 -1.511,0.015 -1.716,-0.309 -0.206,-0.321 -0.659,-0.776 -1.363,-1.363 -0.234,-0.116 -0.587,-0.058 -1.056,0.176 -0.763,0.295 -1.202,0.998 -1.319,2.111 0.059,0.587 0.088,1.438 0.088,2.551 -0.059,1.936 0.733,3.93 2.375,5.981 0.177,0.176 1.144,0.822 2.903,1.936 3.459,2.111 6.479,3.166 9.06,3.166 0.645,0 1.261,-0.058 1.848,-0.176 0.879,-0.116 2.022,-0.557 3.43,-1.319 1.993,-2.111 3.372,-5.043 4.135,-8.796 0.409,-2.111 0.732,-5.424 0.967,-9.939 V 36.86 c 0,-3.694 -0.675,-7.74 -2.022,-12.139 0,-0.176 0,-0.439 0,-0.792 -0.235,-0.176 -0.439,-0.615 -0.616,-1.319 -0.294,-0.938 -0.47,-1.465 -0.527,-1.583 -0.059,-0.527 -0.147,-1.128 -0.264,-1.803 -0.118,-0.674 -0.44,-1.1 -0.968,-1.276 -0.294,-0.058 -1.29,0.207 -2.99,0.792 -1.878,0.587 -3.167,0.88 -3.871,0.88 -0.703,0 -1.29,-0.146 -1.759,-0.44 -0.822,-0.527 -1.35,-1.055 -1.583,-1.583 -0.235,-0.527 -0.294,-0.968 -0.176,-1.319 0.527,-1.816 2.08,-3.02 4.661,-3.606 1.817,-0.233 3.664,-0.469 5.542,-0.703 1.349,-0.293 4.69,-0.616 10.027,-0.968 0.469,0.059 0.968,0.338 1.495,0.836 0.527,0.498 0.792,0.951 0.792,1.361 z" />
    </g>
  </g>
</svg>

<svg version="1.1" width="60" height="79" xmlns="http://www.w3.org/2000/svg" xmlns:xlink="http://www.w3.org/1999/xlink">
  <!-- Exported by Scratch - http://scratch.mit.edu/ -->
  <g id="ID0.5927098118700087">
    <g id="ID0.4447302892804146">
      <g id="ID0.7447618972510099">
        <path id="ID0.10947818402200937" fill="#00CCCC" d="M 59.880 14.117 C 59.590 17.567 58.110 20.617 55.750 22.917 C 56.910 27.627 57.450 31.307 57.450 34.397 L 57.450 42.397 C 57.450 47.757 57.080 51.637 56.290 54.627 C 54.880 59.937 54.490 61.117 54.240 61.807 C 52.480 66.697 49.810 70.567 46.320 73.267 C 42.770 76.007 38.670 77.737 34.120 78.427 C 33.930 78.457 33.730 78.487 33.540 78.507 C 32.590 78.597 31.580 78.647 30.530 78.647 C 23.980 78.647 17.640 76.737 11.710 72.977 C 1.630 66.547 -0.040 58.427 0.060 53.427 C 0.020 52.937 0 52.437 0 51.897 C 0 49.247 0.530 46.527 1.590 43.827 C 3.450 39.017 6.480 36.517 8.690 35.277 C 13.470 32.647 17.110 31.487 20.590 31.487 C 24.070 31.487 27.390 32.727 30.090 35.017 C 29.970 33.637 29.730 32.167 29.360 30.607 C 26.790 30.517 24.360 29.787 22.300 28.487 C 19.550 26.727 17.630 24.577 16.510 22.037 C 14.860 18.357 15.230 15.157 15.880 13.047 C 17.570 7.447 22.200 3.397 28.620 1.947 C 28.960 1.867 29.310 1.807 29.660 1.757 C 31.360 1.537 33.090 1.317 34.840 1.097 C 36.360 0.817 39.100 0.467 45.900 0.027 C 46.600 -0.023 47.300 -0.003 47.990 0.087 C 49.940 0.327 52.860 1.177 55.670 3.837 C 59.360 7.317 59.910 11.197 59.910 13.197 C 59.910 13.507 59.900 13.817 59.880 14.117 Z "/>
      </g>
    </g>
    <g id="ID0.1137806847691536">
      <path id="ID0.6012937603518367" fill="#FFFFFF" d="M 48.914 13.198 C 48.796 14.605 47.916 15.544 46.275 16.012 C 44.984 16.306 43.693 16.599 42.404 16.892 C 43.166 18.593 43.988 21.202 44.867 24.720 C 45.923 28.884 46.451 32.109 46.451 34.396 L 46.451 42.400 C 46.451 46.681 46.186 49.819 45.659 51.812 C 44.721 55.331 44.134 57.413 43.900 58.057 C 42.844 60.990 41.407 63.160 39.589 64.567 C 37.536 66.150 35.161 67.146 32.465 67.557 C 31.878 67.615 31.234 67.645 30.529 67.645 C 26.072 67.645 21.761 66.326 17.598 63.687 C 12.907 60.696 10.738 57.149 11.089 53.043 C 11.030 52.750 11.001 52.369 11.001 51.899 C 11.001 50.610 11.278 49.247 11.837 47.809 C 12.394 46.372 13.141 45.390 14.080 44.862 C 16.952 43.279 19.122 42.487 20.589 42.487 C 21.585 42.487 22.480 42.883 23.272 43.675 C 24.064 44.467 24.460 45.362 24.460 46.359 C 24.460 47.180 24.108 47.884 23.404 48.469 C 23.169 48.645 22.641 48.764 21.821 48.822 C 20.883 48.940 20.310 48.837 20.105 48.513 C 19.899 48.192 19.446 47.737 18.742 47.150 C 18.508 47.034 18.155 47.092 17.686 47.326 C 16.923 47.621 16.484 48.324 16.367 49.437 C 16.426 50.024 16.455 50.875 16.455 51.988 C 16.396 53.924 17.188 55.918 18.830 57.969 C 19.007 58.145 19.974 58.791 21.733 59.905 C 25.192 62.016 28.212 63.071 30.793 63.071 C 31.438 63.071 32.054 63.013 32.641 62.895 C 33.520 62.779 34.663 62.338 36.071 61.576 C 38.064 59.465 39.443 56.533 40.206 52.780 C 40.615 50.669 40.938 47.356 41.173 42.841 L 41.173 36.860 C 41.173 33.166 40.498 29.120 39.151 24.721 C 39.151 24.545 39.151 24.282 39.151 23.929 C 38.916 23.753 38.712 23.314 38.535 22.610 C 38.241 21.672 38.065 21.145 38.008 21.027 C 37.949 20.500 37.861 19.899 37.744 19.224 C 37.626 18.550 37.304 18.124 36.776 17.948 C 36.482 17.890 35.486 18.155 33.786 18.740 C 31.908 19.327 30.619 19.620 29.915 19.620 C 29.212 19.620 28.625 19.474 28.156 19.180 C 27.334 18.653 26.806 18.125 26.573 17.597 C 26.338 17.070 26.279 16.629 26.397 16.278 C 26.924 14.462 28.477 13.258 31.058 12.672 C 32.875 12.439 34.722 12.203 36.600 11.969 C 37.949 11.676 41.290 11.353 46.627 11.001 C 47.096 11.060 47.595 11.339 48.122 11.837 C 48.649 12.335 48.914 12.788 48.914 13.198 Z "/>
    </g>
  </g>
</svg>
